X:790
T:Ballahaboy Fair
C:anon.
O:Ireland
B:Francis O'Neill: "Music of Ireland" no. 790
N:O'Neill's - 790
R:Jig
Z:Transcribed by Stephen Foy (shf@access.digex.net)
F:http://abc.musicaviva.com/tunes/ireland/oneill-1850/oneill-1850-0790.abc
M:6/8
K:D
f/e/|d2 A AFA|BGB A2 f/e/|d2 A AFA|~g3 f2 d|\*d2 A AFA|Bdg b2 b/b/|aba agf|e3 d2:|*||a|fga bag|fga bag|fga fga|efg gfe|\*fga bag|fga baa|aba agf|e3 d2:|*X:790
T:Ballahaboy Fair.
B:O'Neill's Music of Ireland
N:O'Neill's - 790
Z:Transcribed by Stephen Foy (shf@access.digex.net)
Z:abc 1.6
R:Jig
M:6/8
K:D
f/e/|d2 A AFA|BGB A2 f/e/|d2 A AFA|~g3 f2 d|\
d2 A AFA|Bdg b2 b/b/|aba agf|e3 d2:|
||a|fga bag|fga bag|fga fga|efg gfe|\
fga bag|fga baa|aba agf|e3 d2:|
W:
W:
W:  From Musica Viva - http://www.musicaviva.com
W:  the Internet center for free sheet music downloads.
